lib/brands/logos/phoenix-society-for-burn-survivors.svg

<svg xmlns="http://www.w3.org/2000/svg" fill="none" aria-hidden="true" viewBox="0 0 241 49"><g id="Phoenix Society for Burn Survivors"><g id="Group"><g id="Group_2"><path id="Vector" fill="url(#paint0_linear_93_16307)" d="M35.8577 31.8942C36.1101 42.8499 23.9119 44.183 23.9119 44.183C34.7317 44.183 44.0891 37.7312 44.0891 28.0503C44.0891 18.3695 36.8802 16.674 36.8802 16.674C39.8051 15.8198 40.1611 12.5325 40.1611 12.5325C40.1611 12.5325 39.734 13.529 36.5243 13.4578C33.3275 13.3867 22.5336 12.2672 20.2622 22.2263C22.5789 20.7509 35.6248 21.5727 35.8577 31.8942Z"/><path id="Vector_2" fill="#69C9CA" d="M21.6275 4.01672C21.6275 4.01672 4.82837 7.26525 4.66012 24.5433C4.4854 42.3778 25.905 46.39 31.6449 37.6021C36.3171 30.4579 29.6259 25.3263 29.6259 25.3263C29.6259 25.3263 31.2566 28.6589 28.3705 31.2668C25.4844 33.8747 16.3471 34.0883 12.0631 26.2905C7.77922 18.4927 12.5873 7.53704 21.6275 4.01672Z"/><path id="Vector_3" fill="#00B6AF" d="M40.7626 9.02503C40.7626 9.02503 37.7147 8.63676 33.4049 6.4495C28.6745 4.05517 16.0816 4.54698 13.6484 16.0851C11.2153 27.6232 20.5596 30.3281 20.5596 30.3281C20.5596 30.3281 17.3046 27.0602 18.1588 21.7991C19.1554 15.645 23.7435 10.2416 32.4472 10.5069C40.7626 10.7658 40.7626 9.02503 40.7626 9.02503Z"/></g><g id="Vector_4"><path fill="#067782" d="M76.8138 23.793C73.4035 23.793 71.0156 21.5087 71.0156 18.2407C71.0156 14.9534 73.4035 12.6561 76.8268 12.6561C80.2629 12.6561 82.6573 14.9469 82.6573 18.2213C82.6573 21.4957 80.2565 23.793 76.8138 23.793ZM76.8462 14.6687C74.7689 14.6687 73.3776 16.1053 73.3776 18.2407C73.3776 20.3698 74.7625 21.7999 76.8268 21.7999C78.8587 21.7999 80.2824 20.3309 80.2824 18.2278C80.2824 16.0988 78.8975 14.6687 76.8462 14.6687Z"/><path fill="#067782" d="M115.078 23.5665L112.36 19.632L109.59 23.5665H107.144L110.865 18.2472L107.151 12.9085H109.713L112.405 17.0371L115.181 12.9085H117.621L113.92 18.2472L117.621 23.5665H115.078Z"/><path fill="#067782" d="M51.298 23.5665V12.9085H55.9702C58.2804 12.9085 59.6587 14.1316 59.6587 16.17C59.6587 18.2343 58.2804 19.4703 55.9702 19.4703H53.5046V23.5665H51.298ZM53.5046 17.7231H55.6919C56.682 17.7231 57.2967 17.1665 57.2967 16.2735C57.2967 15.3805 56.682 14.824 55.6919 14.824H53.5046V17.7231Z"/><path fill="#067782" d="M67.6377 23.5665V19.1208H62.9461V23.5665H60.7459V12.9085H62.9461V17.283H67.6377V12.9085H69.8573V23.5665H67.6377Z"/><path fill="#067782" d="M84.0098 23.5665V12.9085H90.9598V14.8499H86.2164V17.2507H90.4162V19.082H86.2164V21.6252H90.9598V23.5665H84.0098Z"/><path fill="#067782" d="M99.6441 23.5665L94.8166 16.4612V23.5665H92.6617V12.9085H94.7972L99.6117 20.0138V12.9085H101.78V23.5665H99.6441Z"/><path fill="#067782" d="M105.791 23.5668V12.9088H103.591V23.5668H105.791Z"/><path fill="#067782" d="M160.719 23.5601V12.8956H167.669V14.8369H162.919V17.2442H167.126V19.0755H162.919V21.6187H167.669V23.5601H160.719Z"/><path fill="#067782" d="M126.778 23.793C125.192 23.793 123.659 23.3853 122.662 22.7059L123.232 21.1592C124.202 21.774 125.484 22.1493 126.622 22.1493C128.434 22.1493 128.706 21.2563 128.706 20.7192C128.706 19.7226 127.839 19.4832 127.205 19.3085L125.885 18.9332C124.817 18.6549 122.856 18.1372 122.856 15.9047C122.856 13.9051 124.429 12.6561 126.965 12.6561C128.253 12.6561 129.554 12.9667 130.622 13.5362L130.065 15.0699C129.204 14.6169 128.111 14.3322 127.192 14.3322C125.393 14.3322 125.199 15.3093 125.199 15.7299C125.199 16.6812 126.027 16.9077 126.687 17.0824L128.324 17.516C129.23 17.7684 131.12 18.286 131.12 20.5121C131.113 22.57 129.489 23.793 126.778 23.793Z"/><path fill="#067782" d="M137.779 23.793C134.368 23.793 131.981 21.5087 131.981 18.2407C131.981 14.9534 134.368 12.6561 137.792 12.6561C141.228 12.6561 143.622 14.9469 143.622 18.2213C143.622 21.4957 141.221 23.793 137.779 23.793ZM137.811 14.6687C135.734 14.6687 134.343 16.1053 134.343 18.2472C134.343 20.3762 135.727 21.8064 137.792 21.8064C139.824 21.8064 141.241 20.3374 141.241 18.2278C141.247 16.0988 139.869 14.6687 137.811 14.6687Z"/><path fill="#067782" d="M150.423 23.793C147.02 23.793 144.735 21.554 144.735 18.2278C144.735 14.8952 147.02 12.6626 150.423 12.6626C152.876 12.6626 154.837 13.8145 155.568 15.6782L153.238 16.3382C152.844 15.3093 151.737 14.6557 150.391 14.6557C148.391 14.6557 147.097 16.06 147.097 18.2278C147.097 20.4021 148.391 21.8064 150.391 21.8064C151.744 21.8064 152.857 21.1463 153.245 20.1109L155.574 20.7774C154.837 22.6476 152.876 23.793 150.423 23.793Z"/><path fill="#067782" d="M159.156 23.5628V12.9048H156.956V23.5628H159.156Z"/><path fill="#067782" d="M172.574 23.5665V14.8434H169.235V12.8956H178.114V14.8434H174.774V23.5665H172.574Z"/><path fill="#067782" d="M183.621 23.5665V18.849L179.485 12.9085H182.042L184.74 17.0436L187.516 12.9085H189.956L185.821 18.8685V23.5665H183.621Z"/></g><g id="Vector_5"><path fill="#69C9CA" d="M51.2654 27.779H58.3901V29.9145H53.6209V31.7652H58.1895L58.3901 31.7717V33.836H53.6209V38.4758H51.2654V27.779Z"/><path fill="#69C9CA" d="M65.7543 38.6894C62.4346 38.6894 60.0338 36.4374 60.0338 33.1371C60.0338 29.8498 62.4217 27.546 65.7738 27.546C69.0935 27.546 71.5137 29.798 71.5137 33.1177C71.5137 36.4374 69.0935 38.6894 65.7543 38.6894ZM65.7867 29.7462C63.8712 29.7462 62.5187 31.1116 62.5187 33.1306C62.5187 35.1302 63.8518 36.5021 65.7738 36.5021C67.6763 36.5021 69.0093 35.1173 69.0093 33.1177C69.0093 31.1181 67.6892 29.7462 65.7867 29.7462Z"/><path fill="#69C9CA" d="M73.1509 27.779H77.8878C80.0556 27.779 81.2916 28.9956 81.2916 30.814C81.2916 32.5353 80.1398 33.6807 78.3925 33.8489L81.874 38.4694H79.0202L75.707 33.8813H75.5064V38.4694H73.1509V27.779ZM77.4413 32.1859C78.3731 32.1859 78.8067 31.7199 78.8067 31.0016C78.8067 30.2316 78.3408 29.8368 77.4413 29.8368H75.5064V32.1859H77.4413Z"/><path fill="#69C9CA" d="M112.45 27.779H117.187C119.355 27.779 120.591 28.9956 120.591 30.814C120.591 32.5353 119.439 33.6807 117.692 33.8489L121.173 38.4694H118.32L115.006 33.8813H114.806V38.4694H112.45V27.779ZM116.741 32.1859C117.673 32.1859 118.106 31.7199 118.106 31.0016C118.106 30.2316 117.64 29.8368 116.741 29.8368H114.806V32.1859H116.741Z"/><path fill="#69C9CA" d="M89.6589 38.4694V27.779H94.4669C96.4989 27.779 97.6507 28.8985 97.6507 30.581C97.6507 31.817 97.0036 32.7165 96.0006 33.0983C97.2884 33.4154 97.9355 34.399 97.9355 35.6026C97.9355 37.5181 96.583 38.4694 94.4993 38.4694H89.6589ZM91.982 29.7786V32.2959H93.8845C94.7323 32.2959 95.3017 31.7976 95.3017 31.0469C95.3017 30.2639 94.7517 29.7786 93.9169 29.7786H91.982ZM95.5994 35.2661C95.5994 34.4313 95.0299 33.9978 94.1822 33.9978H91.982V36.4698H94.2016C95.1011 36.4698 95.5994 36.0038 95.5994 35.2661Z"/><path fill="#69C9CA" d="M109.506 34.5025C109.506 37.2398 107.59 38.6894 104.866 38.6894C102.064 38.6894 100.246 37.1234 100.246 34.5025V27.779H102.614V34.4184C102.614 35.9391 103.598 36.5539 104.866 36.5539C106.316 36.5539 107.15 35.7838 107.15 34.4184V27.779H109.506V34.5025Z"/><path fill="#69C9CA" d="M123.27 38.2688V27.779H125.457L129.922 34.399V27.779H132.265V38.4758H130.084L125.613 31.8882V38.4758H123.277V38.2688H123.27Z"/><path fill="#69C9CA" d="M162.563 27.779H167.3C169.468 27.779 170.704 28.9956 170.704 30.814C170.704 32.5353 169.552 33.6807 167.805 33.8489L171.286 38.4694H168.432L165.119 33.8813H164.919V38.4694H162.563V27.779ZM166.853 32.1859C167.785 32.1859 168.219 31.7199 168.219 31.0016C168.219 30.2316 167.753 29.8368 166.853 29.8368H164.919V32.1859H166.853Z"/><path fill="#69C9CA" d="M217.672 27.779H222.408C224.576 27.779 225.812 28.9956 225.812 30.814C225.812 32.5353 224.66 33.6807 222.913 33.8489L226.395 38.4694H223.541L220.228 33.8813H220.027V38.4694H217.672V27.779ZM221.955 32.1859C222.887 32.1859 223.321 31.7199 223.321 31.0016C223.321 30.2316 222.855 29.8368 221.955 29.8368H220.021V32.1859H221.955Z"/><path fill="#69C9CA" d="M159.619 34.5025C159.619 37.2398 157.703 38.6894 154.979 38.6894C152.177 38.6894 150.358 37.1234 150.358 34.5025V27.779H152.727V34.4184C152.727 35.9391 153.711 36.5539 154.979 36.5539C156.428 36.5539 157.263 35.7838 157.263 34.4184V27.779H159.619V34.5025Z"/><path fill="#69C9CA" d="M146.832 30.2316C146.049 29.7786 145.013 29.4809 144.127 29.4809C142.942 29.4809 142.36 29.9662 142.36 30.6845C142.36 31.4999 143.078 31.7005 143.848 31.9011L145.201 32.27C146.12 32.5029 148.087 33.0724 148.087 35.3697C148.087 37.4081 146.521 38.6894 143.803 38.6894C142.282 38.6894 140.781 38.2882 139.785 37.5699L139.655 37.4663L139.72 37.3045L140.27 35.8874L140.36 35.6803L140.542 35.8032C141.389 36.418 142.593 36.7869 143.693 36.7869C144.929 36.7869 145.576 36.3339 145.576 35.5379C145.576 34.6514 144.806 34.4508 144.178 34.2696L142.975 33.9331C141.907 33.6354 139.908 33.0983 139.908 30.8334C139.908 28.7497 141.577 27.546 143.958 27.546C145.311 27.546 146.612 27.9149 147.576 28.4649L147.731 28.5491L147.66 28.7302L147.11 30.1474L147.026 30.348L146.832 30.2316Z"/><path fill="#69C9CA" d="M235.086 30.2316C234.302 29.7786 233.267 29.4809 232.381 29.4809C231.196 29.4809 230.614 29.9662 230.614 30.6845C230.614 31.4999 231.332 31.7005 232.102 31.9011L233.455 32.27C234.374 32.5029 236.341 33.0724 236.341 35.3697C236.341 37.4081 234.775 38.6894 232.057 38.6894C230.536 38.6894 229.035 38.2882 228.038 37.5699L227.909 37.4663L227.974 37.3045L228.524 35.8874L228.614 35.6803L228.796 35.8032C229.643 36.418 230.847 36.7869 231.947 36.7869C233.183 36.7869 233.83 36.3339 233.83 35.5379C233.83 34.6514 233.06 34.4508 232.432 34.2696L231.229 33.9331C230.161 33.6354 228.161 33.0983 228.161 30.8334C228.161 28.7497 229.831 27.546 232.212 27.546C233.565 27.546 234.865 27.9149 235.83 28.4649L235.985 28.5491L235.914 28.7302L235.364 30.1474L235.28 30.348L235.086 30.2316Z"/><path fill="#69C9CA" d="M179.647 38.4694H177.246L172.296 27.779H174.988L178.45 35.6026L181.899 27.779H184.533L179.731 38.3205L179.647 38.4694Z"/><path fill="#69C9CA" d="M198.329 38.4694H195.928L190.978 27.779H193.67L197.132 35.6026L200.581 27.779H203.215L198.413 38.3205L198.329 38.4694Z"/><path fill="#69C9CA" d="M209.518 38.6894C206.198 38.6894 203.797 36.4374 203.797 33.1371C203.797 29.8498 206.185 27.546 209.537 27.546C212.857 27.546 215.277 29.798 215.277 33.1177C215.277 36.4374 212.851 38.6894 209.518 38.6894ZM209.55 29.7462C207.635 29.7462 206.282 31.1116 206.282 33.1306C206.282 35.1302 207.615 36.5021 209.537 36.5021C211.44 36.5021 212.773 35.1173 212.773 33.1177C212.773 31.1181 211.453 29.7462 209.55 29.7462Z"/><path fill="#69C9CA" d="M188.933 27.779H186.578V38.4694H188.933V27.779Z"/></g></g></g><defs><linearGradient id="paint0_linear_93_16307" x1="42.2502" x2="32.5729" y1="18.5601" y2="26.6246" gradientUnits="userSpaceOnUse"><stop stop-color="#067781"/><stop offset="1" stop-color="#075E66"/></linearGradient></defs></svg>

<svg xmlns="http://www.w3.org/2000/svg" fill="none" aria-hidden="true" viewBox="0 0 241 49"><path fill="url(#a)" d="M35.858 31.894c.252 10.956-11.946 12.289-11.946 12.289 10.82 0 20.177-6.452 20.177-16.133 0-9.68-7.209-11.376-7.209-11.376 2.925-.854 3.281-4.141 3.281-4.141s-.427.996-3.636.925c-3.197-.071-13.991-1.19-16.262 8.768 2.316-1.475 15.362-.653 15.595 9.668Z"/><path fill="#69C9CA" d="M21.628 4.017S4.828 7.265 4.66 24.543C4.486 42.378 25.905 46.39 31.645 37.602c4.672-7.144-2.019-12.276-2.019-12.276s1.63 3.333-1.255 5.94c-2.886 2.609-12.024 2.822-16.308-4.976-4.284-7.797.524-18.753 9.565-22.273Z"/><path fill="#00B6AF" d="M40.763 9.025s-3.048-.388-7.358-2.576c-4.73-2.394-17.323-1.902-19.757 9.636-2.433 11.538 6.912 14.243 6.912 14.243s-3.255-3.268-2.401-8.529c.996-6.154 5.585-11.557 14.288-11.292 8.316.259 8.316-1.482 8.316-1.482Z"/><path fill="#067782" d="M76.814 23.793c-3.41 0-5.798-2.284-5.798-5.552 0-3.288 2.388-5.585 5.81-5.585 3.437 0 5.831 2.29 5.831 5.565 0 3.275-2.4 5.572-5.843 5.572Zm.032-9.124c-2.077 0-3.468 1.436-3.468 3.572 0 2.129 1.385 3.559 3.449 3.559 2.032 0 3.456-1.47 3.456-3.572 0-2.13-1.385-3.56-3.437-3.56Zm38.232 8.898-2.718-3.935-2.77 3.934h-2.446l3.721-5.319-3.714-5.339h2.562l2.692 4.129 2.777-4.129h2.439l-3.701 5.34 3.701 5.319h-2.543Zm-63.78 0V12.908h4.672c2.31 0 3.689 1.224 3.689 3.262 0 2.064-1.378 3.3-3.689 3.3h-2.465v4.097h-2.207Zm2.207-5.844h2.187c.99 0 1.605-.556 1.605-1.45 0-.893-.615-1.45-1.605-1.45h-2.187v2.9Zm14.133 5.844V19.12h-4.692v4.446h-2.2V12.908h2.2v4.375h4.692v-4.375h2.22v10.659h-2.22Zm16.372 0V12.908h6.95v1.942h-4.743v2.4h4.2v1.832h-4.2v2.543h4.743v1.942h-6.95Zm15.634 0-4.827-7.106v7.106h-2.155V12.908h2.135l4.815 7.106v-7.106h2.168v10.659h-2.136Zm6.147 0V12.909h-2.2v10.658h2.2Zm54.928-.007V12.896h6.95v1.94h-4.75v2.408h4.207v1.832h-4.207v2.543h4.75v1.941h-6.95Zm-33.941.233c-1.586 0-3.119-.408-4.116-1.087l.57-1.547c.97.615 2.252.99 3.391.99 1.811 0 2.083-.893 2.083-1.43 0-.996-.867-1.236-1.501-1.41l-1.32-.376c-1.068-.278-3.029-.796-3.029-3.028 0-2 1.573-3.249 4.11-3.249 1.287 0 2.588.31 3.656.88l-.557 1.534c-.86-.453-1.954-.738-2.873-.738-1.799 0-1.993.977-1.993 1.398 0 .951.828 1.178 1.488 1.352l1.637.434c.906.252 2.796.77 2.796 2.996-.006 2.058-1.631 3.281-4.342 3.281Zm11.001 0c-3.41 0-5.798-2.284-5.798-5.552 0-3.288 2.388-5.585 5.811-5.585 3.436 0 5.83 2.29 5.83 5.565 0 3.275-2.4 5.572-5.843 5.572Zm.032-9.124c-2.077 0-3.468 1.436-3.468 3.578 0 2.13 1.384 3.56 3.449 3.56 2.032 0 3.449-1.47 3.449-3.58.006-2.128-1.372-3.558-3.43-3.558Zm12.613 9.124c-3.404 0-5.689-2.24-5.689-5.565 0-3.333 2.285-5.566 5.689-5.566 2.452 0 4.413 1.152 5.144 3.016l-2.33.66c-.394-1.029-1.501-1.682-2.847-1.682-1.999 0-3.294 1.404-3.294 3.572 0 2.174 1.295 3.578 3.294 3.578 1.353 0 2.466-.66 2.854-1.695l2.33.666c-.738 1.87-2.699 3.016-5.151 3.016Zm8.733-.23V12.905h-2.201v10.658h2.201Zm13.417.004v-8.724h-3.339v-1.947h8.879v1.947h-3.339v8.724h-2.201Zm11.047 0v-4.718l-4.135-5.94h2.556l2.698 4.135 2.776-4.136h2.44l-4.135 5.96v4.699h-2.2Z"/><path fill="#69C9CA" d="M51.266 27.779h7.124v2.135h-4.769v1.851h4.569l.2.007v2.064h-4.769v4.64h-2.355V27.779ZM65.755 38.69c-3.32 0-5.72-2.253-5.72-5.553 0-3.287 2.387-5.591 5.739-5.591 3.32 0 5.74 2.252 5.74 5.572 0 3.32-2.42 5.571-5.76 5.571Zm.032-8.944c-1.916 0-3.268 1.366-3.268 3.385 0 2 1.333 3.371 3.255 3.371 1.903 0 3.236-1.385 3.236-3.384 0-2-1.32-3.372-3.223-3.372Zm7.364-1.967h4.737c2.168 0 3.404 1.216 3.404 3.035 0 1.721-1.152 2.867-2.9 3.035l3.482 4.62h-2.853l-3.314-4.588h-.2v4.588H73.15V27.78Zm4.29 4.407c.932 0 1.366-.466 1.366-1.184 0-.77-.466-1.165-1.365-1.165h-1.935v2.349h1.934Zm35.01-4.407h4.736c2.168 0 3.404 1.216 3.404 3.035 0 1.721-1.152 2.867-2.899 3.035l3.482 4.62h-2.854l-3.313-4.588h-.201v4.588h-2.355V27.78Zm4.29 4.407c.932 0 1.365-.466 1.365-1.184 0-.77-.466-1.165-1.365-1.165h-1.935v2.349h1.935ZM89.66 38.47V27.778h4.807c2.032 0 3.184 1.12 3.184 2.802 0 1.236-.647 2.135-1.65 2.517 1.288.317 1.935 1.3 1.935 2.505 0 1.915-1.353 2.866-3.437 2.866h-4.84Zm2.322-8.691v2.517h1.903c.847 0 1.417-.498 1.417-1.25 0-.782-.55-1.267-1.385-1.267h-1.935Zm3.618 5.487c0-.835-.57-1.268-1.418-1.268h-2.2v2.472h2.22c.9 0 1.398-.466 1.398-1.204Zm13.906-.764c0 2.738-1.915 4.187-4.64 4.187-2.802 0-4.62-1.566-4.62-4.187V27.78h2.368v6.64c0 1.52.984 2.135 2.252 2.135 1.45 0 2.285-.77 2.285-2.136v-6.64h2.355v6.724Zm13.764 3.767v-10.49h2.188l4.465 6.62v-6.62h2.342v10.697h-2.18l-4.472-6.588v6.588h-2.336v-.207h-.007Zm39.293-10.49h4.737c2.168 0 3.404 1.216 3.404 3.035 0 1.721-1.152 2.867-2.899 3.035l3.481 4.62h-2.853l-3.314-4.588h-.2v4.588h-2.356V27.78Zm4.291 4.407c.932 0 1.365-.466 1.365-1.184 0-.77-.466-1.165-1.365-1.165h-1.935v2.349h1.935Zm50.818-4.407h4.737c2.168 0 3.404 1.216 3.404 3.035 0 1.721-1.152 2.867-2.9 3.035l3.482 4.62h-2.854l-3.313-4.588h-.201v4.588h-2.355V27.78Zm4.284 4.407c.932 0 1.365-.466 1.365-1.184 0-.77-.466-1.165-1.365-1.165h-1.935v2.349h1.935Zm-62.337 2.316c0 2.738-1.916 4.187-4.64 4.187-2.802 0-4.62-1.566-4.62-4.187V27.78h2.368v6.64c0 1.52.984 2.135 2.252 2.135 1.45 0 2.284-.77 2.284-2.136v-6.64h2.356v6.724Zm-12.787-4.27c-.783-.453-1.818-.751-2.705-.751-1.184 0-1.767.485-1.767 1.203 0 .816.719 1.017 1.489 1.217l1.352.369c.919.233 2.886.802 2.886 3.1 0 2.038-1.566 3.32-4.284 3.32-1.52 0-3.022-.402-4.018-1.12l-.13-.104.065-.162.55-1.417.091-.207.181.123c.848.615 2.051.984 3.151.984 1.236 0 1.883-.453 1.883-1.25 0-.886-.77-1.086-1.397-1.267l-1.204-.337c-1.068-.298-3.067-.835-3.067-3.1 0-2.083 1.669-3.287 4.051-3.287 1.352 0 2.653.369 3.617.919l.155.084-.071.181-.55 1.417-.084.201-.194-.116Zm88.254 0c-.783-.453-1.819-.751-2.705-.751-1.184 0-1.767.485-1.767 1.203 0 .816.718 1.017 1.489 1.217l1.352.369c.919.233 2.886.802 2.886 3.1 0 2.038-1.566 3.32-4.284 3.32-1.52 0-3.022-.402-4.018-1.12l-.13-.104.065-.162.55-1.417.091-.207.181.123c.847.615 2.051.984 3.151.984 1.236 0 1.883-.453 1.883-1.25 0-.886-.77-1.086-1.397-1.267l-1.204-.337c-1.068-.298-3.067-.835-3.067-3.1 0-2.083 1.669-3.287 4.051-3.287 1.352 0 2.653.369 3.617.919l.155.084-.071.181-.55 1.417-.084.201-.194-.116Zm-55.439 8.238h-2.401l-4.95-10.691h2.692l3.462 7.824 3.449-7.824h2.634l-4.802 10.542-.084.148Zm18.682 0h-2.4l-4.951-10.691h2.692l3.462 7.824 3.449-7.824h2.634l-4.801 10.542-.085.148Zm11.189.22c-3.32 0-5.72-2.253-5.72-5.553 0-3.287 2.387-5.591 5.74-5.591 3.319 0 5.739 2.252 5.739 5.572 0 3.32-2.426 5.571-5.759 5.571Zm.033-8.944c-1.916 0-3.268 1.366-3.268 3.385 0 2 1.333 3.371 3.255 3.371 1.902 0 3.235-1.385 3.235-3.384 0-2-1.32-3.372-3.222-3.372Zm-20.618-1.967h-2.355v10.69h2.355V27.78Z"/><defs><linearGradient id="a" x1="42.251" x2="32.573" y1="18.56" y2="26.625" gradientUnits="userSpaceOnUse"><stop stop-color="#067781"/><stop offset="1" stop-color="#075E66"/></linearGradient></defs></svg>
